X:1
T:Title
%%score { ( 1 3 ) | ( 2 4 ) }
L:1/8
M:6/8
K:F
V:1 treble nm="Grand Piano"
V:3 treble 
V:2 bass 
V:4 bass 
V:1
 z3 z2[Q:1/4=92] C | CFG AGF | c3 c2 c | dcA FE[=B,DF] | [EG]3- [EG]2 [FA] | [GB][FA][GB] GAB | %6
[M:5/8] [Ac]3 A2 |[M:1/8] A |[M:3/4] GG G=B cd | c2- [Fc-] [Gc]2 C | CF GA GF | c3 c2 [Ac] | %12
 [Af][ce] [Bd][Ac] [GB][FA] |[M:5/8] [Fd]-[Fd]- [Fd]3 |[M:1/8] [B,D] | %15
[M:3/4] [_A,DF][A,DE] [A,DF][A,DG] [=A,CF][CEG] | %16
[M:13/16] [CFA]/-[CFA]/-[CFA]-<[CFA][Fc]-<[Fc][Fd]3/2 |[M:3/4] [Fc][EB] [FA][FA] [FA][EG] | %18
[M:5/8] F-F- F3 |[M:1/8] C |[M:3/4] FF FF EF |[M:5/8] G-G- G3 |[M:1/8] C | %23
[M:3/4] [EG][EG] [EG][EG] [DF][EG] | A6 | AA A[GB] [GB][GB] |[M:15/16] [Fc]3 [Fd]3 [Ff]3/2 | %27
[M:3/4] [Fc][DGB] [CFA][CFA] [CFA][B,EG] | [A,CF]6 |] %29
V:2
 z3 z2 C, | C,F,G, A,G,F, | [F,A,F]3 [F,A,F]2 [F,A,F] | [F,B,F][F,A,F][F,CF] [G,=B,D][G,B,D]G,, | %4
 [C,C]3- [C,C]2 [C,C] | [C,C][C,C][C,C][K:treble] [B,CE][A,CF][G,CG] | %6
[M:5/8][K:bass] [F,C]3 [F,CF]2 |[M:1/8][K:treble] [F,CF] | %8
[M:3/4] [G,=B,F][G,B,F] [G,B,F][G,DF] [G,CF][G,B,F] | z2 A, B,2 C, | C,F, G,A, G,F, | %11
 [F,A,F]3 [F,A,F]2 [F,C] | [F,C][F,C] [F,C][F,C] [F,C][F,C] |[M:5/8] [B,,B,]-[B,,B,]- [B,,B,]3 | %14
[M:1/8] B,, |[M:3/4] =B,,B,, B,,B,, C,C, |[M:13/16] F,/-F,/-F,-<F,[F,A,]-<[F,A,][B,,B,]3/2 | %17
[M:3/4] [C,A,][C,G,] [C,C][C,C] [C,C][C,B,] |[M:5/8] [F,A,]-[F,A,]- [F,A,]3 |[M:1/8] [F,A,] | %20
[M:3/4] [F,A,C][F,A,C] [F,A,C][F,A,C] [G,B,C][F,A,C] |[M:5/8] [E,G,C][E,G,][D,F,] [E,G,]2 | %22
[M:1/8] C, |[M:3/4] [C,C][C,C] [C,C][C,C] [D,A,][C,C] | [F,CF][F,C] [F,C] F,2 [F,A,C] | %25
 [F,CF][F,CF] [F,CF][C,C] [C,C][C,C] |[M:15/16] [F,A,]3 [B,,B,]3 [=B,,_A,]3/2 | %27
[M:3/4] [C,A,]C, C,C, C,C, | F,6 |] %29
V:3
 x6 | x6 | x6 | x6 | x6 | x6 |[M:5/8] x5 |[M:1/8] x |[M:3/4] x6 | [CE]2 z2 z2 | x6 | x6 | x6 | %13
[M:5/8] x5 |[M:1/8] x |[M:3/4] x6 |[M:13/16] x13/2 |[M:3/4] x6 |[M:5/8] x5 |[M:1/8] x |[M:3/4] x6 | %21
[M:5/8] z C=B, C2 |[M:1/8] x |[M:3/4] x6 | z E D C2 F | x6 |[M:15/16] x15/2 |[M:3/4] x6 | x6 |] %29
V:4
 x6 | x6 | x6 | x6 | x6 | x3[K:treble] x3 |[M:5/8][K:bass] x5 |[M:1/8][K:treble] x |[M:3/4] x6 | %9
 C,6 | x6 | x6 | x6 |[M:5/8] x5 |[M:1/8] x |[M:3/4] x6 |[M:13/16] x13/2 |[M:3/4] x6 |[M:5/8] x5 | %19
[M:1/8] x |[M:3/4] x6 |[M:5/8] x5 |[M:1/8] x |[M:3/4] x6 | x6 | x6 |[M:15/16] x15/2 |[M:3/4] x6 | %28
 x6 |] %29

